svgs/regular/user-doctor-message.svg

<svg xmlns="http://www.w3.org/2000/svg" viewBox="0 0 640 512"><!--! Font Awesome Pro 6.3.0 by @fontawesome - https://fontawesome.com License - https://fontawesome.com/license (Commercial License) Copyright 2023 Fonticons, Inc. --><path d="M144 128a80 80 0 1 0 160 0 80 80 0 1 0 -160 0zm80 128A128 128 0 1 1 224 0a128 128 0 1 1 0 256zm-48 96c-5.4 0-10.8 .3-16 1v49.3c23.1 6.9 40 28.3 40 53.7c0 30.9-25.1 56-56 56s-56-25.1-56-56c0-25.4 16.9-46.8 40-53.7v-41c-46.9 19-80 65-80 118.7v8c0 13.3-10.7 24-24 24s-24-10.7-24-24v-8c0-97.2 78.8-176 176-176h96c97.2 0 176 78.8 176 176v8c0 13.3-10.7 24-24 24s-24-10.7-24-24v-8c0-53.7-33.1-99.7-80-118.7V402c27.6 7.1 48 32.2 48 62v32c0 8.8-7.2 16-16 16H328c-8.8 0-16-7.2-16-16s7.2-16 16-16h8V464c0-17.7-14.3-32-32-32s-32 14.3-32 32v16h8c8.8 0 16 7.2 16 16s-7.2 16-16 16H256c-8.8 0-16-7.2-16-16V464c0-29.8 20.4-54.9 48-62V353c-5.2-.7-10.6-1-16-1H176zm-8 104a24 24 0 1 0 -48 0 24 24 0 1 0 48 0zM432 0H592c26.5 0 48 21.5 48 48V176c0 26.5-21.5 48-48 48H544l-83.2 62.4c-2.4 1.8-5.7 2.1-8.4 .8s-4.4-4.1-4.4-7.2V224H432c-26.5 0-48-21.5-48-48V48c0-26.5 21.5-48 48-48z"/></svg>

<svg xmlns="http://www.w3.org/2000/svg" viewBox="0 0 640 512"><!--! Font Awesome Pro 6.2.0 by @fontawesome - https://fontawesome.com License - https://fontawesome.com/license (Commercial License) Copyright 2022 Fonticons, Inc. --><path d="M352 128C352 198.7 294.7 256 224 256C153.3 256 96 198.7 96 128C96 57.31 153.3 0 224 0C294.7 0 352 57.31 352 128zM144 128C144 172.2 179.8 208 224 208C268.2 208 304 172.2 304 128C304 83.82 268.2 48 224 48C179.8 48 144 83.82 144 128zM176 352C170.6 352 165.2 352.3 160 352.1V402.3C183.1 409.2 200 430.6 200 456C200 486.9 174.9 512 144 512C113.1 512 88 486.9 88 456C88 430.6 104.9 409.2 128 402.3V361.3C81.09 380.3 48 426.3 48 480V488C48 501.3 37.25 512 24 512C10.75 512 0 501.3 0 488V480C0 382.8 78.8 304 176 304H272C369.2 304 448 382.8 448 480V488C448 501.3 437.3 512 424 512C410.7 512 400 501.3 400 488V480C400 426.3 366.9 380.3 320 361.3V402.3C343.1 409.2 360 430.6 360 456V488C360 496.8 352.8 504 344 504C335.2 504 328 496.8 328 488V456C328 442.7 317.3 432 304 432C290.7 432 280 442.7 280 456V488C280 496.8 272.8 504 264 504C255.2 504 248 496.8 248 488V456C248 430.6 264.9 409.2 288 402.3V352.1C282.8 352.3 277.4 352 272 352H176zM144 432C130.7 432 120 442.7 120 456C120 469.3 130.7 480 144 480C157.3 480 168 469.3 168 456C168 442.7 157.3 432 144 432zM592 0C618.5 0 640 21.49 640 48V176C640 202.5 618.5 224 592 224H544L460.8 286.4C458.4 288.2 455.1 288.5 452.4 287.2C449.7 285.8 448 283 448 280V224H432C405.5 224 384 202.5 384 176V48C384 21.49 405.5 0 432 0L592 0z"/></svg>
